X:354
T: Am Sonntagmorgen in aller Frh (4-53), S. 71
N: P0614
O: Lothringen
S: PINCK, Louis: Verklingende Weisen Bd 4, Kassel 1939]
R: Liebeslied]
M: none
L: 1/8
K: G
 | D2G2D2 | G3AB2GFA2 | G2
D2G2D2G2A2 | d3ed2
B2 | ccd2c2B4
d2 | d2B2e3d | cBA2z2
A2 | B4d3B | A4z2
D2 | G2D2B2G2 | d3ed2
cA | B4A4 | G4z4

@@@ Tune index: 7904
